usr/share/icons/biglinux-icons-material/scalable/mimetypes/application-ogg.svg

<svg width="24" height="24" viewBox="0 0 24 24" fill="none" xmlns="http://www.w3.org/2000/svg">
<rect x="1" y="1" width="22" height="22" rx="6.6" fill="url(#paint0_radial_3_1327)"/>
<path d="M16.5317 5.00014C16.3541 4.99824 16.118 5.02586 15.8039 5.07307L10.5764 5.87237C9.31427 6.14112 9.31862 6.2247 9.31432 7.29097V15.9425C9.26169 15.9056 9.20976 15.8685 9.15535 15.8321C8.75437 15.5634 8.327 15.3725 7.753 15.3725C7.034 15.3725 6.60525 15.6478 6.34565 16.0104C6.08608 16.3731 6 16.8301 6 17.1835C6 17.6096 6.14547 18.0643 6.46106 18.4108C6.77664 18.7573 7.26181 19 7.95941 19C8.74716 19 9.30126 18.78 9.61456 18.3504C9.8612 18.0122 9.99759 17.5603 10.0462 17.0029V17.0013C10.0531 16.9337 10.058 16.8643 10.0623 16.7927C10.0689 16.6825 10.0674 16.4764 10.0674 16.4764V9.85191C10.0674 8.90556 10.0674 8.84911 11.3298 8.63326L15.0473 8.05016C16.312 7.88468 16.3123 7.99976 16.3123 8.71046V14.79C16.2611 14.7541 16.2105 14.718 16.1575 14.6825C15.7566 14.4138 15.3294 14.2229 14.7553 14.2229C14.0363 14.2229 13.6074 14.4982 13.3478 14.8609C13.0883 15.2235 13.0022 15.6806 13.0022 16.0339C13.0022 16.46 13.1478 16.9147 13.4634 17.2612C13.779 17.6078 14.2642 17.8506 14.9618 17.8506C15.7495 17.8506 16.3036 17.6304 16.6169 17.2008C16.8636 16.8626 16.9998 16.4109 17.0484 15.8535V15.8517C17.0552 15.7841 17.0601 15.7149 17.0645 15.6433C17.0711 15.5331 17.0698 15.3268 17.0698 15.3268V6.1108C17.0698 5.2808 17.0645 5.00609 16.5317 5.00014Z" fill="#F1CB49"/>
<defs>
<radialGradient id="paint0_radial_3_1327" cx="0" cy="0" r="1" gradientUnits="userSpaceOnUse" gradientTransform="translate(17.5 1) rotate(116.565) scale(24.5967)">
<stop stop-color="#F4F4F4"/>
<stop offset="1" stop-color="#BBBBBB"/>
</radialGradient>
</defs>
</svg>

<svg xmlns="http://www.w3.org/2000/svg" width="24" height="24" fill="none"><rect width="22" height="22" x="1" y="1" fill="url(#a)" rx="6.6"/><path fill="#F1CB49" d="M16.532 5a4.96 4.96 0 0 0-.728.073l-5.228.8c-1.262.268-1.257.352-1.262 1.418v8.652c-.052-.037-.104-.075-.159-.11-.4-.27-.828-.46-1.402-.46-.719 0-1.148.275-1.407.637-.26.363-.346.82-.346 1.173 0 .427.145.881.461 1.228.316.346.8.589 1.498.589.788 0 1.342-.22 1.656-.65.246-.338.383-.79.431-1.347V17a5.03 5.03 0 0 0 .016-.208c.007-.11.005-.317.005-.317V9.852c0-.946 0-1.003 1.263-1.219l3.717-.583c1.265-.165 1.265-.05 1.265.66v6.08c-.05-.036-.102-.072-.155-.107-.4-.27-.828-.46-1.402-.46-.719 0-1.148.275-1.407.638-.26.362-.346.82-.346 1.173 0 .426.146.88.461 1.227.316.347.801.59 1.499.59.787 0 1.342-.22 1.655-.65.247-.338.383-.79.431-1.348v-.001c.007-.068.012-.137.017-.209.006-.11.005-.316.005-.316V6.11c0-.83-.006-1.105-.538-1.11Z"/><defs><radialGradient id="a" cx="0" cy="0" r="1" gradientTransform="rotate(116.565 8.441 5.908) scale(24.5967)" gradientUnits="userSpaceOnUse"><stop stop-color="#F4F4F4"/><stop offset="1" stop-color="#BBB"/></radialGradient></defs></svg>
